packages/IcoMoon/src/EqualizerIcon/index.svg

<svg version="1.1" xmlns="http://www.w3.org/2000/svg" width="16" height="16" viewBox="0 0 16 16">
<path d="M7 2v-0.25c0-0.413-0.338-0.75-0.75-0.75h-2.5c-0.413 0-0.75 0.337-0.75 0.75v0.25h-3v2h3v0.25c0 0.412 0.337 0.75 0.75 0.75h2.5c0.412 0 0.75-0.338 0.75-0.75v-0.25h9v-2h-9zM4 4v-2h2v2h-2zM13 6.75c0-0.412-0.338-0.75-0.75-0.75h-2.5c-0.412 0-0.75 0.338-0.75 0.75v0.25h-9v2h9v0.25c0 0.412 0.338 0.75 0.75 0.75h2.5c0.412 0 0.75-0.338 0.75-0.75v-0.25h3v-2h-3v-0.25zM10 9v-2h2v2h-2zM7 11.75c0-0.412-0.338-0.75-0.75-0.75h-2.5c-0.413 0-0.75 0.338-0.75 0.75v0.25h-3v2h3v0.25c0 0.412 0.337 0.75 0.75 0.75h2.5c0.412 0 0.75-0.338 0.75-0.75v-0.25h9v-2h-9v-0.25zM4 14v-2h2v2h-2z"></path>
</svg>

<svg xmlns="http://www.w3.org/2000/svg" viewBox="0 0 16 16">
  <path d="M7 2v-.25A.752.752 0 006.25 1h-2.5a.752.752 0 00-.75.75V2H0v2h3v.25c0 .412.337.75.75.75h2.5c.412 0 .75-.338.75-.75V4h9V2H7zM4 4V2h2v2H4zm9 2.75a.753.753 0 00-.75-.75h-2.5a.753.753 0 00-.75.75V7H0v2h9v.25c0 .412.338.75.75.75h2.5c.412 0 .75-.338.75-.75V9h3V7h-3v-.25zM10 9V7h2v2h-2zm-3 2.75a.753.753 0 00-.75-.75h-2.5a.752.752 0 00-.75.75V12H0v2h3v.25c0 .412.337.75.75.75h2.5c.412 0 .75-.338.75-.75V14h9v-2H7v-.25zM4 14v-2h2v2H4z"/>
</svg>
